example/source/Internet_FP2.svg

<?xml version="1.0" encoding="UTF-8"?>
<svg xmlns="http://www.w3.org/2000/svg" xmlns:xlink="http://www.w3.org/1999/xlink" contentScriptType="text/ecmascript" zoomAndPan="magnify" baseProfile="tiny" contentStyleType="text/css" version="1.1" width="44px" preserveAspectRatio="xMidYMid meet" viewBox="0 0 44 44" height="44px" x="0px" y="0px">
    <g>
        <g>
            <g>
                <rect width="44" fill="none" height="44"/>
                <path d="M 35.898 14.374 L 35.898 14.374 C 31.522999 14.375 27.149998 14.375 22.776999 14.375 L 20.246998 11.458 C 17.749998 11.458 15.251998 11.458 12.754997 11.458 C 11.369997 11.458 9.984997 11.458 8.599997 11.458 C 6.7919965 11.458 5.5529966 12.589001 5.116997 14.375 L 4.999 14.375 C 4.999 22.234001 4.999 30.093 4.999 37.951 C 13.558001 37.951 22.118 37.956 30.677 37.952 C 33.397 37.951 36.115 37.95 38.835 37.95 C 38.835 30.092001 38.835 22.233002 38.835 14.374001 L 35.898 14.374001 " fill-opacity="0.2"/>
                <path d="M 35.898 15.375 C 31.373999 15.375 26.847 15.375 22.323997 15.375 L 19.791998 12.458 L 8.031 12.458 C 6.738 12.458 5.976 14.3 6.009 15.375 L 6.0 15.375 C 6.0 22.568 6.0 29.761 6.0 36.954002 C 14.738 36.954002 23.477 36.954002 32.212997 36.954002 C 34.086998 36.954002 35.961998 36.954002 37.836 36.954002 C 37.836 29.761002 37.836 22.568003 37.836 15.375002 L 35.898 15.375002 " fill-opacity="0.4"/>
                <g>
                    <path d="M 41.202 12.483 L 41.329998 12.04 L 16.316 4.817 L 16.188 5.26 L 15.974 5.1980004 L 15.758 5.9450006 L 15.316 5.817001 L 9.767 25.025 L 10.207 25.152 L 10.146 25.363 L 10.628 25.504002 L 36.120003 32.873 L 36.469 31.670002 L 41.948 12.698002 L 41.202 12.483 z M 35.438 31.633 L 35.0 31.505 L 35.066 31.265999 L 35.506 31.393 L 35.438 31.633 z " fill-opacity="0.2"/>
                    <polygon fill="#d6c1aa" points="16.316,4.817 10.767,24.025 35.781,31.254 35.988,30.532 41.33,12.04     "/>
                    <linearGradient x1="291.6953" gradientTransform="matrix(1 0 0 -1 -280 -1598)" y1="-1616.0361" x2="320.4023" gradientUnits="userSpaceOnUse" y2="-1616.0361" xlink:type="simple" xlink:actuate="onLoad" id="SVGID_1_" xlink:show="other">
                        <stop stop-color="#e8e0b5" offset="0"/>
                        <stop stop-color="#ede7cc" offset="1"/>
                    </linearGradient>
                    <polygon fill="url(#SVGID_1_)" points="35.271,30.325 11.696,23.516 16.828,5.747 40.402,12.555     "/>
                    <g>
                        <path d="M 38.836 13.375 L 36.898 13.375 L 29.526999 13.375 L 29.524998 13.375 L 23.323997 13.375 L 20.791998 10.458 L 15.466998 10.458 L 11.695998 23.515999 L 35.272 30.328999 L 38.836 17.982998 C 38.836 16.979998 38.836 16.079998 38.836 15.347998 C 38.836 14.134 38.836 13.375 38.836 13.375 z " fill-opacity="0.2"/>
                    </g>
                    <rect x="15.064" y="8.97" fill-opacity="0.4" transform="matrix(-0.9607 -0.2775 0.2775 -0.9607 49.8178 34.2379)" fill="#ffffff" width="24.536" height="9.248"/>
                </g>
                <linearGradient x1="301.918" gradientTransform="matrix(1 0 0 -1 -280 -1598)" y1="-1609.458" x2="301.918" gradientUnits="userSpaceOnUse" y2="-1633.9541" xlink:type="simple" xlink:actuate="onLoad" id="SVGID_2_" xlink:show="other">
                    <stop stop-color="#ffe23d" offset="0"/>
                    <stop stop-color="#fad337" offset="0.2239"/>
                    <stop stop-color="#efab26" offset="0.6537"/>
                    <stop stop-color="#e48717" offset="1"/>
                </linearGradient>
                <path fill="url(#SVGID_2_)" d="M 35.898 14.375 C 31.373999 14.375 26.847 14.375 22.323997 14.375 L 19.791998 11.458 L 8.031 11.458 C 6.738 11.458 5.976 13.3 6.009 14.375 L 6.0 14.375 C 6.0 21.568 6.0 28.761 6.0 35.954002 C 14.738 35.954002 23.477 35.954002 32.212997 35.954002 C 34.086998 35.954002 35.961998 35.954002 37.836 35.954002 C 37.836 28.761002 37.836 21.568003 37.836 14.375002 L 35.898 14.375002 "/>
                <path fill="#ffffff" d="M 34.457 15.137 C 30.302 15.137 26.146 15.137 21.991001 15.137 L 19.437 12.25 L 8.637 12.25 C 7.427 12.25 6.82 14.182 6.852 15.137 L 6.844 15.137 C 6.844 18.536 6.844 21.935 6.844 25.334 C 13.792 25.334 20.74 25.334 27.687 25.334 C 30.791 25.334 33.894 25.334 37.0 25.334 C 37.0 21.935 37.0 18.536 37.0 15.137 L 34.457 15.137 " fill-opacity="0.3"/>
            </g>
        </g>
        <g>
            <path d="M 21.353 30.672 C 21.353 25.598001 25.419 21.136002 30.475 20.687 C 35.595 20.232 40.458 23.961 41.278 29.048 C 42.097 34.125 38.728 39.249 33.71 40.43 C 28.557999 41.642002 23.123999 38.457 21.717 33.345 C 21.475 32.475 21.353 31.573 21.353 30.672 " fill-opacity="0.2"/>
            <path d="M 40.637 30.675 C 40.637 35.73 36.282 40.017 31.227001 39.932 C 28.768002 39.892 26.401001 38.815998 24.708 37.042 C 23.106 35.366 21.906 32.817 22.133 30.448 C 22.272 28.98 23.762 28.193 25.004 27.761 C 26.51 27.235 28.140999 27.008999 29.723999 26.883 C 32.077 26.698 34.495 26.821 36.767998 27.477999 C 38.272 27.913 40.637 28.765 40.637 30.675 " fill-opacity="0.5"/>
            <linearGradient x1="1081.3936" gradientTransform="matrix(1 0 0 1 -1050.0107 -3832.0244)" y1="3871.1807" x2="1081.3936" gradientUnits="userSpaceOnUse" y2="3852.6719" xlink:type="simple" xlink:actuate="onLoad" id="SVGID_3_" xlink:show="other">
                <stop stop-color="#84d8fd" offset="0"/>
                <stop stop-color="#7dd1fb" offset="0.1127"/>
                <stop stop-color="#6bbef7" offset="0.2752"/>
                <stop stop-color="#4d9ff0" offset="0.4679"/>
                <stop stop-color="#2676e7" offset="0.6703"/>
                <stop stop-color="#2676e7" offset="1"/>
            </linearGradient>
            <path fill="url(#SVGID_3_)" d="M 31.38 20.647 C 36.433 20.647 40.721 25.0 40.635 30.055 C 40.55 35.107002 36.127 39.322998 31.075998 39.152 C 26.144999 38.986 22.045998 34.688 22.128998 29.75 C 22.21 24.813 26.444 20.647 31.38 20.647 "/>
            <linearGradient x1="254.96" gradientTransform="matrix(1 0 0 1 -224 -1496)" y1="1534.0137" x2="254.96" gradientUnits="userSpaceOnUse" y2="1517.5881" xlink:type="simple" xlink:actuate="onLoad" id="SVGID_4_" xlink:show="other">
                <stop stop-color="#c5eaff" offset="0"/>
                <stop stop-color="#7ac6f7" offset="1"/>
            </linearGradient>
            <path fill="url(#SVGID_4_)" d="M 38.533 30.51 C 38.512 30.345 38.292 30.345 38.168 30.348 C 37.924 30.352 37.853 30.327 37.687 30.149 C 37.44 29.880001 36.769 30.082 36.441 30.064001 C 36.174004 30.047 36.225002 29.963001 36.068 29.804 C 35.868 29.605001 35.868 29.705 35.674 29.783 C 35.334 29.922 34.753 29.740002 34.383 29.722 C 33.941998 29.704 34.078 29.962 33.76 30.164 C 33.628 30.251999 33.396 30.786999 33.209 30.685 C 32.843998 30.482 32.427 30.845999 32.072 30.536 C 31.807 30.307 31.498 29.884998 31.107998 29.994999 C 30.727999 30.098999 30.736998 29.438 30.312998 29.661999 C 30.198997 29.721998 30.267998 29.857998 30.209997 29.946999 C 30.112997 30.093998 29.906998 30.192 29.749998 30.253998 C 29.403997 30.391998 29.058998 30.029997 28.903997 29.752998 C 28.712997 29.407999 29.139997 29.585999 28.933998 29.300999 C 28.896997 29.248999 28.751999 29.130999 28.839998 29.069998 C 29.032999 28.937998 28.910997 28.837997 29.012 28.655998 C 28.994999 28.679998 29.456999 28.665998 29.501999 28.665998 C 29.581999 28.665998 29.825998 28.727999 29.807 28.568998 C 29.803999 28.541998 29.741 28.286 29.785 28.286 C 29.86 28.286 30.44 28.234 30.427 28.22 C 30.488 28.296 30.608 28.288 30.69 28.271 C 30.800001 28.25 31.045 28.58 31.11 28.645 C 31.367 28.407 30.915 28.125 30.831001 27.921001 C 30.750002 27.728 30.972002 27.560001 30.888 27.368002 C 30.797 27.154001 31.008001 27.044003 31.166 26.947002 C 31.442 26.779003 31.568 26.462002 31.646 26.160002 C 31.683 25.997002 31.713 25.826002 31.704 25.660002 C 31.687 25.354002 31.359001 25.473001 31.118 25.473001 C 31.119 25.285002 31.295 25.211002 31.46 25.218002 C 31.73 25.232002 31.848 25.015003 32.017 24.849003 C 32.227997 25.272003 32.587997 24.722002 32.648 24.533003 C 32.711 24.341003 32.850998 24.147003 33.032997 24.048002 C 33.236996 23.937002 33.275997 23.699001 33.429996 23.542002 C 33.187996 23.437002 32.917995 23.420002 32.675995 23.318 C 32.392994 23.198 32.203995 22.884 32.056995 22.625 C 31.933996 22.399 31.930996 22.105 31.747995 21.908 C 31.597996 21.746 31.311995 21.665 31.107996 21.613 C 30.792995 21.532001 30.093996 21.806002 30.224997 22.231 C 30.302996 22.491001 30.733997 23.363 30.323997 23.588001 C 30.198997 23.658 29.909998 23.653002 29.846998 23.807001 C 29.783998 23.958 30.087997 24.143002 29.936998 24.335001 C 29.616 24.750002 29.539999 23.982 29.375998 23.955002 C 29.154997 23.914001 29.035997 24.073002 28.795998 23.895002 C 28.645998 23.787003 28.795998 23.616003 28.495998 23.659002 C 28.256998 23.694002 28.127998 23.700003 27.937998 23.529003 C 27.805998 23.411003 27.586998 23.120003 27.847998 23.006002 C 28.119997 22.888002 28.851997 22.002003 28.269999 21.882002 C 28.200998 21.868002 28.130999 21.869001 28.06 21.879002 C 25.987 22.770002 24.289 24.456001 23.38 26.527 C 23.456999 26.59 23.529999 26.662 23.595999 26.776001 C 23.752998 27.046001 23.890999 27.047 24.154999 27.166 C 24.461998 27.301 24.532 27.196001 24.532 27.56 C 24.532 27.991 24.757 28.907999 25.279999 28.907999 C 25.578999 28.907999 25.72 29.109999 25.914 29.303999 C 26.14 29.532 26.372 29.696999 26.675 29.807 C 26.574999 29.764 26.487 29.703 26.407999 29.625 C 26.790998 29.244 27.365 30.065 27.627998 30.35 C 28.036 30.788 28.795998 30.834 29.371998 30.765001 C 29.530998 30.744001 29.661999 30.634 29.767998 30.52 C 29.930998 30.353 29.939999 30.354 30.106998 30.357 C 30.282999 30.361 30.412998 30.066 30.670998 30.105 C 30.768997 30.119 31.474998 30.284 31.480997 30.338999 C 31.516996 30.64 32.834995 30.898998 32.695995 31.207998 C 32.595997 31.428999 32.352997 31.520998 32.354996 31.792997 C 32.358997 31.933998 32.323997 32.329 32.443996 32.429996 C 32.592995 32.552998 32.758995 32.659996 32.944996 32.700996 C 33.160995 32.747997 33.227997 33.144997 33.361996 33.300995 C 33.520996 33.488995 33.675995 33.575996 33.912994 33.576996 C 33.948994 33.578995 34.389996 33.598995 34.389996 33.598995 C 34.295994 33.708996 34.522995 33.829994 34.613995 33.919994 C 34.700996 34.005993 34.651993 34.232994 34.638996 34.340996 C 34.608997 34.668995 34.607998 35.075996 34.795998 35.361996 C 35.045998 35.737995 35.023 35.940994 34.996998 36.379997 C 34.990997 36.469997 34.921997 37.039997 35.03 37.063995 C 35.083 37.075996 35.218 36.872993 35.254997 36.835995 C 35.297997 37.074993 35.599 37.147995 35.415997 37.414993 C 35.382996 37.463993 35.378 37.52199 35.390995 37.580994 C 35.691994 37.418995 35.979996 37.23699 36.261993 37.039993 C 36.209995 36.977993 36.126995 36.86899 36.13299 36.830994 C 36.13299 36.784992 36.53199 36.817993 36.450993 36.643993 C 36.406994 36.555992 36.087994 36.38299 36.346992 36.289993 C 36.41099 36.267994 36.59299 36.253994 36.575993 36.138992 C 36.55099 35.951992 36.721992 35.941994 36.850994 35.830994 C 37.161995 35.561993 37.112995 35.464993 36.827995 35.206993 C 36.620995 35.020992 36.949997 35.064995 37.063995 35.061993 C 37.395996 35.054993 37.187996 34.719994 37.332996 34.525993 C 37.488995 34.312992 37.939995 33.98699 37.686996 33.683994 C 37.515995 33.482994 37.789997 33.112995 37.623997 32.944996 C 37.881996 33.203995 38.180996 32.711994 38.313995 32.545998 C 38.607994 32.172997 38.450996 31.899998 38.332996 31.496998 C 38.232 31.144 38.581 30.861 38.533 30.51 z "/>
            <linearGradient x1="1081.3496" gradientTransform="matrix(1 0 0 1 -1050.0107 -3832.0244)" y1="3861.9141" x2="1081.3496" gradientUnits="userSpaceOnUse" y2="3853.0459" xlink:type="simple" xlink:actuate="onLoad" id="SVGID_5_" xlink:show="other">
                <stop stop-color="#26bfff" offset="0"/>
                <stop stop-color="#43c8ff" offset="0.0464"/>
                <stop stop-color="#6fd5ff" offset="0.1258"/>
                <stop stop-color="#96e0ff" offset="0.2112"/>
                <stop stop-color="#b6eaff" offset="0.3018"/>
                <stop stop-color="#d1f1ff" offset="0.3987"/>
                <stop stop-color="#e5f7ff" offset="0.5044"/>
                <stop stop-color="#f4fcff" offset="0.6233"/>
                <stop stop-color="#fcfeff" offset="0.7666"/>
                <stop stop-color="#ffffff" offset="1"/>
            </linearGradient>
            <path fill="url(#SVGID_5_)" d="M 22.469 29.902 C 22.469 25.115 26.550999 21.033 31.337 21.033 C 36.125 21.033 40.207 25.116001 40.207 29.902 C 34.295 29.902 28.383 29.902 22.469 29.902 " fill-opacity="0.7"/>
        </g>
    </g>
</svg>

<svg xmlns="http://www.w3.org/2000/svg" xmlns:xlink="http://www.w3.org/1999/xlink" contentScriptType="text/ecmascript" baseProfile="tiny" width="44" height="44"><rect width="44" height="44" fill="none"/><path d="M35.898 14.374c-4.375.001-8.748.001-13.121.001l-2.53-2.917h-11.647c-1.808 0-3.047 1.131-3.483 2.917h-.118v23.576c8.559 0 17.119.005 25.678.001 2.72-.001 5.438-.002 8.158-.002v-23.576h-2.937" fill-opacity=".2"/><path d="M35.898 15.375h-13.574l-2.532-2.917h-11.761c-1.293 0-2.055 1.842-2.022 2.917h-.009v21.579h31.836000000000002v-21.579h-1.938" fill-opacity=".4"/><path d="M41.202 12.483l.128-.443-25.014-7.223-.128.443-.214-.062-.216.747-.442-.128-5.549 19.208.44.127-.061.211.482.141 25.492 7.369.349-1.203 5.479-18.972-.746-.215zm-5.764 19.15l-.438-.128.066-.239.44.127-.068.24z" fill-opacity=".2"/><polygon fill="#d6c1aa" points="16.316,4.817 10.767,24.025 35.781,31.254 35.988,30.532 41.33,12.04"/><linearGradient x1="291.695" gradientTransform="matrix(1 0 0 -1 -280 -1598)" y1="-1616.036" x2="320.402" gradientUnits="userSpaceOnUse" y2="-1616.036" xlink:type="simple" xlink:actuate="onLoad" id="a" xlink:show="other"><stop stop-color="#e8e0b5" offset="0"/><stop stop-color="#ede7cc" offset="1"/></linearGradient><polygon fill="url(#a)" points="35.271,30.325 11.696,23.516 16.828,5.747 40.402,12.555"/><path d="M38.836 13.375h-15.512l-2.532-2.917h-5.325l-3.771 13.058 23.576 6.813 3.564-12.346v-4.608z" fill-opacity=".2"/><rect x="15.064" y="8.97" fill-opacity=".4" transform="matrix(-.961 -.278 .278 -.961 49.818 34.238)" fill="#fff" width="24.536" height="9.248"/><linearGradient x1="301.918" gradientTransform="matrix(1 0 0 -1 -280 -1598)" y1="-1609.458" x2="301.918" gradientUnits="userSpaceOnUse" y2="-1633.954" xlink:type="simple" xlink:actuate="onLoad" id="b" xlink:show="other"><stop stop-color="#ffe23d" offset="0"/><stop stop-color="#fad337" offset=".224"/><stop stop-color="#efab26" offset=".654"/><stop stop-color="#e48717" offset="1"/></linearGradient><path fill="url(#b)" d="M35.898 14.375h-13.574l-2.532-2.917h-11.761c-1.293 0-2.055 1.842-2.022 2.917h-.009v21.579h31.836000000000002v-21.579h-1.938"/><path fill="#fff" d="M34.457 15.137h-12.466l-2.554-2.887h-10.8c-1.21 0-1.817 1.932-1.785 2.887h-.008v10.197h30.156v-10.197h-2.543" fill-opacity=".3"/><path d="M21.353 30.672c0-5.074 4.066-9.536 9.122-9.985 5.12-.455 9.983 3.274 10.803 8.361.819 5.077-2.55 10.201-7.568 11.382-5.152 1.212-10.586-1.973-11.993-7.085-.242-.87-.364-1.772-.364-2.673" fill-opacity=".2"/><path d="M40.637 30.675c0 5.055-4.355 9.342-9.41 9.257-2.459-.04-4.826-1.116-6.519-2.89-1.602-1.676-2.802-4.225-2.575-6.594.139-1.468 1.629-2.255 2.871-2.687 1.506-.526 3.137-.752 4.72-.878 2.353-.185 4.771-.062 7.044.595 1.504.435 3.869 1.287 3.869 3.197" fill-opacity=".5"/><linearGradient x1="1081.394" gradientTransform="translate(-1050.011 -3832.024)" y1="3871.181" x2="1081.394" gradientUnits="userSpaceOnUse" y2="3852.672" xlink:type="simple" xlink:actuate="onLoad" id="c" xlink:show="other"><stop stop-color="#84d8fd" offset="0"/><stop stop-color="#7dd1fb" offset=".113"/><stop stop-color="#6bbef7" offset=".275"/><stop stop-color="#4d9ff0" offset=".468"/><stop stop-color="#2676e7" offset=".67"/><stop stop-color="#2676e7" offset="1"/></linearGradient><path fill="url(#c)" d="M31.38 20.647c5.053 0 9.341 4.353 9.255 9.408-.085 5.052-4.508 9.268-9.559 9.097-4.931-.166-9.03-4.464-8.947-9.402.081-4.937 4.315-9.103 9.251-9.103"/><linearGradient x1="254.96" gradientTransform="translate(-224 -1496)" y1="1534.014" x2="254.96" gradientUnits="userSpaceOnUse" y2="1517.588" xlink:type="simple" xlink:actuate="onLoad" id="d" xlink:show="other"><stop stop-color="#c5eaff" offset="0"/><stop stop-color="#7ac6f7" offset="1"/></linearGradient><path fill="url(#d)" d="M38.533 30.51c-.021-.165-.241-.165-.365-.162-.244.004-.315-.021-.481-.199-.247-.269-.918-.067-1.246-.085-.267-.017-.216-.101-.373-.26-.2-.199-.2-.099-.394-.021-.34.139-.921-.043-1.291-.061-.441-.018-.305.24-.623.442-.132.088-.364.623-.551.521-.365-.203-.782.161-1.137-.149-.265-.229-.574-.651-.964-.541-.38.104-.371-.557-.795-.333-.114.06-.045.196-.103.285-.097.147-.303.245-.46.307-.346.138-.691-.224-.846-.501-.191-.345.236-.167.03-.452-.037-.052-.182-.17-.094-.231.193-.132.071-.232.172-.414-.017.024.445.01.49.01.08 0 .324.062.305-.097-.003-.027-.066-.283-.022-.283.075 0 .655-.052.642-.066.061.076.181.068.263.051.11-.021.355.309.42.374.257-.238-.195-.52-.279-.724l.057-.553c-.091-.214.12-.324.278-.421.276-.168.402-.485.48-.787.037-.163.067-.334.058-.5-.017-.306-.345-.187-.586-.187.001-.188.177-.262.342-.255.27.014.388-.203.557-.369.211.423.571-.127.631-.316.063-.192.203-.386.385-.485.204-.111.243-.349.397-.506l-.754-.224c-.283-.12-.472-.434-.619-.693-.123-.226-.126-.52-.309-.717-.15-.162-.436-.243-.64-.295-.315-.081-1.014.193-.883.618.078.26.509 1.132.099 1.357-.125.07-.414.065-.477.219-.063.151.241.336.09.528-.321.415-.397-.353-.561-.38-.221-.041-.34.118-.58-.06-.15-.108 0-.279-.3-.236-.239.035-.368.041-.558-.13-.132-.118-.351-.409-.09-.523.272-.118 1.004-1.004.422-1.124l-.21-.003c-2.073.891-3.771 2.577-4.68 4.648.077.063.15.135.216.249.157.27.295.271.559.39.307.135.377.03.377.394 0 .431.225 1.348.748 1.348.299 0 .44.202.634.396.226.228.458.393.761.503-.1-.043-.188-.104-.267-.182.383-.381.957.44 1.22.725.408.438 1.168.484 1.744.415.159-.021.29-.131.396-.245.163-.167.172-.166.339-.163.176.004.306-.291.564-.252.098.014.804.179.81.234.036.301 1.354.56 1.215.869-.1.221-.343.313-.341.585.004.141-.031.536.089.637.149.123.315.23.501.271.216.047.283.444.417.6.159.188.314.275.551.276l.477.022c-.094.11.133.231.224.321.087.086.038.313.025.421-.03.328-.031.735.157 1.021.25.376.227.579.201 1.018-.006.09-.075.66.033.684.053.012.188-.191.225-.228.043.239.344.312.161.579-.033.049-.038.107-.025.166.301-.162.589-.344.871-.541-.052-.062-.135-.171-.129-.209 0-.046.399-.013.318-.187-.044-.088-.363-.261-.104-.354.064-.022.246-.036.229-.151-.025-.187.146-.197.275-.308.311-.269.262-.366-.023-.624-.207-.186.122-.142.236-.145.332-.007.124-.342.269-.536.156-.213.607-.539.354-.842-.171-.201.103-.571-.063-.739.258.259.557-.233.69-.399.294-.373.137-.646.019-1.049-.101-.353.248-.636.2-.987z"/><linearGradient x1="1081.35" gradientTransform="translate(-1050.011 -3832.024)" y1="3861.914" x2="1081.35" gradientUnits="userSpaceOnUse" y2="3853.046" xlink:type="simple" xlink:actuate="onLoad" id="e" xlink:show="other"><stop stop-color="#26bfff" offset="0"/><stop stop-color="#43c8ff" offset=".046"/><stop stop-color="#6fd5ff" offset=".126"/><stop stop-color="#96e0ff" offset=".211"/><stop stop-color="#b6eaff" offset=".302"/><stop stop-color="#d1f1ff" offset=".399"/><stop stop-color="#e5f7ff" offset=".504"/><stop stop-color="#f4fcff" offset=".623"/><stop stop-color="#fcfeff" offset=".767"/><stop stop-color="#fff" offset="1"/></linearGradient><path fill="url(#e)" d="M22.469 29.902c0-4.787 4.082-8.869 8.868-8.869 4.788 0 8.87 4.083 8.87 8.869h-17.738" fill-opacity=".7"/></svg>
